toonz/sources/toonz/Resources/histograms_click.svg

<?xml version="1.0" encoding="utf-8"?>
<!-- Generator: Adobe Illustrator 21.0.2, SVG Export Plug-In . SVG Version: 6.00 Build 0)  -->
<svg version="1.1"
	 id="svg2" inkscape:version="0.91 r13725" sodipodi:docname="histograms_click.svg" xmlns:cc="http://creativecommons.org/ns#" xmlns:dc="http://purl.org/dc/elements/1.1/" xmlns:inkscape="http://www.inkscape.org/namespaces/inkscape" xmlns:rdf="http://www.w3.org/1999/02/22-rdf-syntax-ns#" xmlns:sodipodi="http://sodipodi.sourceforge.net/DTD/sodipodi-0.dtd" xmlns:svg="http://www.w3.org/2000/svg"
	 xmlns="http://www.w3.org/2000/svg" xmlns:xlink="http://www.w3.org/1999/xlink" x="0px" y="0px" viewBox="0 0 17 17"
	 style="enable-background:new 0 0 17 17;" xml:space="preserve">
<style type="text/css">
	.st0{fill:#404040;}
	.st1{fill:#FFFFFF;}
</style>
<sodipodi:namedview  bordercolor="#666666" borderopacity="1" gridtolerance="10" guidetolerance="10" id="namedview8" inkscape:current-layer="svg2" inkscape:cx="10.5" inkscape:cy="8.5" inkscape:pageopacity="0" inkscape:pageshadow="2" inkscape:window-height="480" inkscape:window-maximized="0" inkscape:window-width="796" inkscape:window-x="0" inkscape:window-y="0" inkscape:zoom="13.882353" objecttolerance="10" pagecolor="#ffffff" showgrid="false">
	</sodipodi:namedview>
<g id="path6" inkscape:connector-curvature="0">
	<path class="st0" d="M6,3v3h1V4h1v5h1V7h1v3h1V6h1V4h1v5h1v1h1v3H2v-2h1V7h1v1h1V3H6 M7,2H6H5H4v1v3H3H2v1v3H1v1v2v1h1h13h1v-1v-3
		V9h-1V8h-1V4V3h-1h-1h-1v1v1h-1v1H9V4V3H8H7V2L7,2z"/>
	<polygon class="st1" points="11,10 11,6 12,6 12,4 13,4 13,9 14,9 14,10 15,10 15,13 2,13 2,11 3,11 3,7 4,7 4,8 5,8 5,3 6,3 6,6 
		7,6 7,4 8,4 8,9 9,9 9,7 10,7 10,10 	"/>
</g>
</svg>

<?xml version="1.0" encoding="UTF-8" standalone="no"?>
<svg
   xmlns:dc="http://purl.org/dc/elements/1.1/"
   xmlns:cc="http://creativecommons.org/ns#"
   xmlns:rdf="http://www.w3.org/1999/02/22-rdf-syntax-ns#"
   xmlns:svg="http://www.w3.org/2000/svg"
   xmlns="http://www.w3.org/2000/svg"
   xml:space="preserve"
   style="enable-background:new 0 0 17 17;"
   viewBox="0 0 17 17"
   y="0px"
   x="0px"
   id="svg2"
   version="1.1"><metadata
     id="metadata13"><rdf:RDF><cc:Work
         rdf:about=""><dc:format>image/svg+xml</dc:format><dc:type
           rdf:resource="http://purl.org/dc/dcmitype/StillImage" /><dc:title></dc:title></cc:Work></rdf:RDF></metadata><defs
     id="defs11" /><style
     id="style2"
     type="text/css">
	.st0{fill:#404040;}
	.st1{fill:#E6E6E6;}
</style><path
     class="st0"
     d="M 6,3 V 6 H 7 V 4 H 8 V 9 H 9 V 7 h 1 v 3 h 1 V 6 h 1 V 4 h 1 v 5 h 1 v 1 h 1 v 3 H 2 V 11 H 3 V 7 H 4 V 8 H 5 V 3 H 6 M 7,2 H 6 5 4 V 3 6 H 3 2 v 1 3 H 1 v 1 2 1 h 1 13 1 V 13 10 9 H 15 V 8 H 14 V 4 3 H 13 12 11 V 4 5 H 10 V 6 H 9 V 4 3 H 8 7 Z"
     id="path5"
     style="fill:#303030;fill-opacity:1" /><polygon
     class="st1"
     points="12,6 12,4 13,4 13,9 14,9 14,10 15,10 15,13 2,13 2,11 3,11 3,7 4,7 4,8 5,8 5,3 6,3 6,6 7,6 7,4 8,4 8,9 9,9 9,7 10,7 10,10 11,10 11,6 "
     id="polygon7"
     style="fill:#fdfdfd;fill-opacity:1" /></svg>
